src/22/panel/battery-low-charging.svg

<svg xmlns="http://www.w3.org/2000/svg" width="22" height="22" version="1.1">
 <defs>
  <style id="current-color-scheme" type="text/css">
   .ColorScheme-Text { color:#dfdfdf; } .ColorScheme-Highlight { color:#5294e2; }
  </style>
 </defs>
 <path style="opacity:0.3;fill:currentColor" class="ColorScheme-Text" d="M 9,4 V 5 H 6 V 17 C 6,17.55 6.446,18 7,18 H 15 C 15.554,18 16,17.55 16,17 V 5 H 13 V 4 Z M 11,8 V 11 H 14 L 11,16 V 13 H 8 Z"/>
 <path style="fill:currentColor" class="ColorScheme-Text" d="M 6 13 L 6 17 C 6 17.55 6.446 18 7 18 L 15 18 C 15.554 18 16 17.55 16 17 L 16 13 L 12.801 13 L 11 16 L 11 13 L 8 13 L 6 13 z"/>
</svg>

<svg xmlns="http://www.w3.org/2000/svg" width="22" height="22"><defs><style id="current-color-scheme" type="text/css">.ColorScheme-Text{color:#dfdfdf}</style></defs><path class="ColorScheme-Text" d="M9 4v1H6v12a1 1 0 0 0 1 1h8a1 1 0 0 0 1-1V5h-3V4zm2 4v3h3l-3 5v-3H8z" opacity=".3" fill="currentColor"/><path class="ColorScheme-Text" d="M6 13v4a1 1 0 0 0 1 1h8a1 1 0 0 0 1-1v-4h-3.199L11 16v-3H6z" fill="currentColor"/></svg>
